assets/svgs/helmet-grey/HelmetGrey17.svg

<svg xmlns="http://www.w3.org/2000/svg" data-name="Layer 1" viewBox="0 0 128 128"><path d="M41.479 32.468a1.77 1.77 0 003.285-1.32 1.77 1.77 0 00-3.285 1.32zM21.247 92.573L38.941 53.2c-4.368-2.439-8.465-3.712-12.66-5.817-5.218 11.067-7.715 27.017-6.43 40.994a9.268 9.268 0 001.396 4.196z"/><path d="M45.374 53.1C53.56 59.163 58.7 67.6 57.316 74.975c-.689 3.672-3.1 6.609-6.867 7.252C40.194 83.983 36.367 108.164 58 109.89c8.316.664 18.672-1.94 27.8-7.372-6.553 2.4-14.14 4.222-20.583 4.159-6.237-.061-13.266-2.915-15.183-8.487-1.775-5.161 1.871-9.7 7.091-12.681a13.8 13.8 0 005.386-4.689c1.366-2.271 2.084-5.582 1.444-10.775-1.018-8.257-5.8-15.007-11.84-20.232-8.675-7.507-19.87-11.86-26.37-13.064-1.929 2.824-1.892 4.461-.672 5.626 2.945 2.81 12.627 5.043 20.301 10.725z"/><path d="M66.626 69.719c.7 5.654-.164 10.009-1.813 12.488a16.156 16.156 0 01-6.362 5.637c-4.016 2.29-7.183 5.66-5.871 9.474 1.522 4.423 7.631 6.63 12.659 6.679a56.027 56.027 0 0017.182-3.15 69.255 69.255 0 0013.115-5.768 41.523 41.523 0 009.225-13.239 45.791 45.791 0 00-77.182-47.45 65.5 65.5 0 0126.292 13.393c6.493 5.617 11.644 12.925 12.755 21.936zm-6.3 29.91a4.453 4.453 0 116-5.7 4.451 4.451 0 01-5.999 5.7zM75.3 66.539a4.453 4.453 0 11-5.888 5.747 4.457 4.457 0 015.888-5.747zm-9.321-23.727a4.453 4.453 0 11-5.888 5.747 4.457 4.457 0 015.888-5.747zM44.77 35.943a4.452 4.452 0 11.1-8.229 4.457 4.457 0 01-.1 8.229z"/><path d="M65.869 46.246a1.77 1.77 0 00-3.287 1.315 1.77 1.77 0 003.287-1.315zM23.019 94.631a11.837 11.837 0 001.17.908L42.2 55.233q-.6-.418-1.2-.8zM49.847 78.7c3.681-.628 4.5-4.727 3.927-8.064-.635-3.716-3-8.116-7.684-12.335L28.471 97.59a39.813 39.813 0 0010.674 1.69c-1.956-8.464 2.194-19.13 10.702-20.58zM75.19 69.974a1.77 1.77 0 00-3.29 1.315 1.775 1.775 0 003.29-1.315zM63.837 94.927a1.77 1.77 0 00-3.285 1.319 1.77 1.77 0 003.285-1.319z"/></svg>

<svg id="Layer_1" data-name="Layer 1" xmlns="http://www.w3.org/2000/svg" viewBox="0 0 128 128"><title>Artboard 1</title><path d="M41.479,32.468a1.77,1.77,0,0,0,3.285-1.32A1.77,1.77,0,0,0,41.479,32.468Z"/><path d="M21.247,92.573,38.941,53.2c-4.368-2.439-8.465-3.712-12.66-5.817C21.063,58.45,18.566,74.4,19.851,88.377A9.268,9.268,0,0,0,21.247,92.573Z"/><path d="M45.374,53.1c8.186,6.063,13.326,14.5,11.942,21.875-.689,3.672-3.1,6.609-6.867,7.252C40.194,83.983,36.367,108.164,58,109.89c8.316.664,18.672-1.94,27.8-7.372-6.553,2.4-14.14,4.222-20.583,4.159-6.237-.061-13.266-2.915-15.183-8.487-1.775-5.161,1.871-9.7,7.091-12.681a13.8,13.8,0,0,0,5.386-4.689c1.366-2.271,2.084-5.582,1.444-10.775-1.018-8.257-5.8-15.007-11.84-20.232-8.675-7.507-19.87-11.86-26.37-13.064-1.929,2.824-1.892,4.461-.672,5.626C28.018,45.185,37.7,47.418,45.374,53.1Z"/><path d="M66.626,69.719c.7,5.654-.164,10.009-1.813,12.488a16.156,16.156,0,0,1-6.362,5.637c-4.016,2.29-7.183,5.66-5.871,9.474,1.522,4.423,7.631,6.63,12.659,6.679a56.027,56.027,0,0,0,17.182-3.15,69.255,69.255,0,0,0,13.115-5.768,41.523,41.523,0,0,0,9.225-13.239A45.791,45.791,0,0,0,27.579,34.39,65.5,65.5,0,0,1,53.871,47.783C60.364,53.4,65.515,60.708,66.626,69.719Zm-6.3,29.91a4.453,4.453,0,1,1,6-5.7A4.451,4.451,0,0,1,60.327,99.629ZM75.3,66.539a4.453,4.453,0,1,1-5.888,5.747A4.457,4.457,0,0,1,75.3,66.539ZM65.979,42.812a4.453,4.453,0,1,1-5.888,5.747A4.457,4.457,0,0,1,65.979,42.812ZM44.77,35.943a4.452,4.452,0,1,1,.1-8.229A4.457,4.457,0,0,1,44.77,35.943Z"/><path d="M65.869,46.246a1.77,1.77,0,0,0-3.287,1.315A1.77,1.77,0,0,0,65.869,46.246Z"/><path d="M23.019,94.631a11.837,11.837,0,0,0,1.17.908L42.2,55.233q-.6-.418-1.2-.8Z"/><path d="M49.847,78.7c3.681-.628,4.5-4.727,3.927-8.064-.635-3.716-3-8.116-7.684-12.335L28.471,97.59a39.813,39.813,0,0,0,10.674,1.69C37.189,90.816,41.339,80.15,49.847,78.7Z"/><path d="M75.19,69.974A1.77,1.77,0,0,0,71.9,71.289,1.775,1.775,0,0,0,75.19,69.974Z"/><path d="M63.837,94.927a1.77,1.77,0,0,0-3.285,1.319,1.77,1.77,0,0,0,3.285-1.319Z"/></svg>
